X: 4
T: Martin Wynne's
R: reel
M: 4/4
L: 1/8
K: Gmaj
|: Bc | dged B2Ac | BGdG EAAc | BGdB cdef | g2ga gfed |dged B2Ac | BGdG EAAc | BGdB cdef | gbaf g2 :||:ba | g2ga gfed | dged BGBc | dgg/g/g gfed| dega bgaf |gbaf gfed | dged BGBc | dgg/g/g gfed | dfaf g2:|


Tune 461	Setting 461

